src/images/santiment.svg

<svg width="129" height="26" viewBox="0 0 129 26" fill="none" xmlns="http://www.w3.org/2000/svg">
<path d="M0 16.9827C0 16.3695 0.156532 15.9093 0.470569 15.6022C0.784605 15.2952 1.20851 15.1421 1.74324 15.1421C2.27798 15.1421 2.70188 15.2961 3.01592 15.6022C3.32995 15.9093 3.48649 16.3695 3.48649 16.9827C3.48649 17.6189 3.32995 18.0901 3.01592 18.3962C2.70188 18.7024 2.27798 18.8564 1.74324 18.8564C1.20851 18.8564 0.784605 18.7024 0.470569 18.3962C0.156532 18.0901 0 17.6189 0 16.9827Z" fill="#181B2B"/>
<path d="M5.99522 22.5963C6.45853 22.8861 7.00908 23.1335 7.64686 23.3384C8.28367 23.5434 8.9389 23.6464 9.6106 23.6464C10.3754 23.6464 11.0238 23.4465 11.5569 23.0456C12.09 22.6448 12.3566 21.9956 12.3566 21.097C12.3566 20.3448 12.1937 19.7258 11.87 19.2402C11.5453 18.7545 11.1343 18.3173 10.6361 17.9286C10.1379 17.5409 9.59897 17.1835 9.01935 16.8584C8.43972 16.5332 7.90081 16.1435 7.4026 15.6861C6.90439 15.2287 6.49245 14.6876 6.16872 14.0626C5.84401 13.4366 5.68214 12.643 5.68214 11.6807C5.68214 10.141 6.08148 8.98088 6.88113 8.19839C7.68078 7.41589 8.81095 7.02515 10.2707 7.02515C11.2206 7.02515 12.0435 7.11602 12.7384 7.29675C13.4334 7.47748 14.0363 7.72586 14.5461 8.03886L13.8861 10.2117C13.446 9.97036 12.9352 9.77146 12.3566 9.61395C11.7769 9.45745 11.1857 9.37869 10.5838 9.37869C9.74921 9.37869 9.14147 9.55943 8.75861 9.9219C8.37575 10.2844 8.1848 10.8518 8.1848 11.6242C8.1848 12.228 8.34667 12.7409 8.67138 13.1629C8.99608 13.586 9.40706 13.9717 9.90526 14.3221C10.4035 14.6724 10.9424 15.0278 11.522 15.3903C12.1007 15.7528 12.6396 16.1809 13.1388 16.6756C13.637 17.1703 14.0479 17.762 14.3726 18.4496C14.6973 19.1372 14.8592 20.0015 14.8592 21.0384C14.8592 21.7149 14.7545 22.354 14.5461 22.9578C14.3377 23.5616 14.0189 24.0866 13.5904 24.5329C13.161 24.9802 12.6289 25.3356 11.9911 25.6011C11.3534 25.8667 10.606 25.9999 9.74921 25.9999C8.72953 25.9999 7.84847 25.8969 7.10697 25.692C6.36548 25.487 5.73933 25.2154 5.22949 24.8772L5.99522 22.5963Z" fill="#181B2B"/>
<path d="M17.8499 8.54586C18.5216 8.1117 19.3387 7.77346 20.3012 7.53215C21.2627 7.29084 22.2766 7.16968 23.3428 7.16968C24.3159 7.16968 25.0981 7.32113 25.6894 7.62201C26.2806 7.9239 26.7439 8.33484 27.0803 8.8528C27.4156 9.37177 27.6366 9.96344 27.7403 10.6268C27.845 11.2912 27.8964 11.9848 27.8964 12.7087C27.8964 14.1576 27.8663 15.5691 27.8072 16.9453C27.7471 18.3215 27.718 19.625 27.718 20.8558C27.718 21.7736 27.7471 22.6247 27.8072 23.4082C27.8673 24.1927 27.9778 24.9348 28.1406 25.6356H26.1808L25.573 23.4991H25.4354C25.0903 24.1271 24.5844 24.6703 23.9175 25.1287C23.2507 25.5871 22.3531 25.8163 21.2259 25.8163C19.9833 25.8163 18.9655 25.364 18.1717 24.4583C17.3779 23.5526 16.9814 22.3036 16.9814 20.7104C16.9814 19.6724 17.1472 18.8031 17.4816 18.1034C17.815 17.4037 18.2861 16.8363 18.8958 16.4011C19.5045 15.9669 20.2285 15.659 21.0679 15.4773C21.9063 15.2965 22.8436 15.2057 23.8778 15.2057C24.1075 15.2057 24.3372 15.2057 24.5669 15.2057C24.7967 15.2057 25.038 15.2178 25.292 15.242C25.3608 14.4938 25.3947 13.8295 25.3947 13.2499C25.3947 11.8737 25.1989 10.9085 24.8093 10.3532C24.4186 9.79785 23.7062 9.52019 22.674 9.52019C22.0304 9.52019 21.3306 9.62318 20.5726 9.82814C19.8146 10.0331 19.1836 10.2936 18.6777 10.6066L17.8499 8.54586ZM25.3239 17.3098C25.0942 17.2856 24.8664 17.2674 24.6367 17.2553C24.408 17.2432 24.1792 17.2371 23.9505 17.2371C23.4009 17.2371 22.863 17.2856 22.3357 17.3815C21.8084 17.4784 21.3393 17.647 20.9273 17.8883C20.5154 18.1297 20.1888 18.4558 19.9484 18.8657C19.708 19.2766 19.5878 19.7956 19.5878 20.4226C19.5878 21.3889 19.8107 22.137 20.2576 22.6681C20.7044 23.1992 21.2821 23.4648 21.9916 23.4648C22.9531 23.4648 23.6975 23.2235 24.2238 22.7408C24.7511 22.2582 25.1165 21.7271 25.323 21.1476V17.3098H25.3239Z" fill="#181B2B"/>
<path d="M40.827 25.5657V14.5209C40.827 12.7106 40.6235 11.4011 40.2183 10.5923C39.8122 9.78357 39.0881 9.3797 38.0452 9.3797C37.1176 9.3797 36.3529 9.66948 35.751 10.249C35.1481 10.8286 34.7081 11.5404 34.4299 12.3855V25.5668H31.9272V7.4593H33.7349L34.1866 9.37869H34.2913C34.7313 8.72644 35.3284 8.17213 36.0815 7.71273C36.8346 7.25434 37.7331 7.02515 38.776 7.02515C39.5175 7.02515 40.1718 7.13419 40.7398 7.35127C41.3077 7.56835 41.7827 7.93688 42.1655 8.45585C42.5474 8.97482 42.8372 9.66847 43.035 10.5378C43.2317 11.4071 43.3306 12.5056 43.3306 13.8334V25.5657H40.827Z" fill="#181B2B"/>
<path d="M45.4507 7.45955H47.5714V3.87522L50.0741 3.04224V7.46056H53.8281V9.8141H50.0741V20.6055C50.0741 21.6676 50.1962 22.434 50.4395 22.9045C50.6828 23.375 51.0831 23.6103 51.6385 23.6103C52.1018 23.6103 52.5012 23.5557 52.8375 23.4477C53.1729 23.3386 53.5383 23.2003 53.9328 23.0317L54.4193 25.0955C53.9095 25.361 53.3473 25.572 52.7328 25.7296C52.1183 25.886 51.4757 25.9648 50.804 25.9648C49.6447 25.9648 48.817 25.572 48.3188 24.7875C47.8205 24.003 47.5714 22.7298 47.5714 20.9669V9.81309H45.4507V7.45955Z" fill="#181B2B"/>
<path d="M56.7134 1.95573C56.7134 1.37618 56.8694 0.905675 57.1825 0.543203C57.4956 0.180731 57.9075 0 58.4174 0C58.9272 0 59.3498 0.175683 59.6861 0.525029C60.0215 0.875385 60.1902 1.35195 60.1902 1.95573C60.1902 2.53528 60.0215 2.98762 59.6861 3.31374C59.3498 3.63987 58.9272 3.80242 58.4174 3.80242C57.9075 3.80242 57.4965 3.63381 57.1835 3.29557C56.8704 2.95733 56.7134 2.51105 56.7134 1.95573ZM57.166 7.45945H59.6687V25.5659H57.166V7.45945Z" fill="#181B2B"/>
<path d="M72.4266 25.566V14.811C72.4266 13.8458 72.3975 13.0188 72.3394 12.3302C72.2812 11.6427 72.1591 11.0813 71.9739 10.6461C71.7878 10.2119 71.5339 9.89188 71.2092 9.68692C70.8845 9.48195 70.4561 9.37897 69.923 9.37897C69.1349 9.37897 68.4681 9.69903 67.9243 10.3382C67.3796 10.9783 67.0035 11.7083 66.7942 12.5291V25.565H64.2915V7.45958H66.0643L66.516 9.37897H66.6207C67.1072 8.67927 67.6869 8.11183 68.3586 7.67666C69.0303 7.2425 69.8881 7.02441 70.931 7.02441C71.8111 7.02441 72.5352 7.22332 73.1041 7.62214C73.6721 8.01995 74.118 8.72672 74.4427 9.74043C74.8595 8.89534 75.4565 8.23198 76.2329 7.74835C77.0093 7.26573 77.8603 7.02441 78.7879 7.02441C79.5527 7.02441 80.2069 7.1274 80.7517 7.33236C81.2964 7.53733 81.7364 7.8998 82.0728 8.41877C82.4081 8.93774 82.6582 9.62634 82.8201 10.4825C82.982 11.3397 83.0634 12.4201 83.0634 13.7236V25.565H80.5607V14.0507C80.5607 12.4817 80.4153 11.3115 80.1265 10.5381C79.8367 9.76567 79.1708 9.37897 78.1279 9.37897C77.2468 9.37897 76.546 9.66269 76.0245 10.2301C75.5031 10.7976 75.1376 11.5639 74.9293 12.5291V25.565H72.4266V25.566Z" fill="#181B2B"/>
<path d="M97.316 24.3342C96.7596 24.8653 96.052 25.2762 95.1952 25.565C94.3374 25.8548 93.434 25.9992 92.4841 25.9992C91.3947 25.9992 90.4506 25.776 89.651 25.3298C88.8513 24.8835 88.1912 24.2434 87.6698 23.4104C87.1483 22.5774 86.7664 21.5819 86.5231 20.4228C86.2798 19.2637 86.1577 17.9602 86.1577 16.5123C86.1577 13.4227 86.7024 11.0681 87.7919 9.45065C88.8814 7.83316 90.4215 7.02441 92.4153 7.02441C93.0638 7.02441 93.7074 7.10923 94.3451 7.27784C94.982 7.44747 95.5558 7.7847 96.0656 8.29155C96.5754 8.79841 96.9864 9.51123 97.2995 10.428C97.6126 11.3458 97.7686 12.5413 97.7686 14.0134C97.7686 14.4243 97.7512 14.8645 97.7163 15.335C97.6814 15.8055 97.6407 16.2942 97.5951 16.8021H88.7651C88.7651 17.84 88.8455 18.782 89.0083 19.6271C89.1702 20.4722 89.4251 21.1901 89.7731 21.7818C90.1211 22.3734 90.5669 22.8318 91.1117 23.158C91.6564 23.4841 92.3339 23.6466 93.1452 23.6466C93.7713 23.6466 94.3907 23.5265 95.0052 23.2842C95.6188 23.0429 96.0879 22.7531 96.4136 22.4148L97.316 24.3342ZM95.3697 14.6303C95.4162 12.8199 95.1729 11.4922 94.6398 10.6471C94.1067 9.80202 93.3759 9.37998 92.4502 9.37998C91.384 9.37998 90.5378 9.80303 89.9127 10.6471C89.2865 11.4922 88.9163 12.8199 88.7999 14.6303H95.3697Z" fill="#181B2B"/>
<path d="M110.178 25.5657V14.5209C110.178 12.7106 109.975 11.4011 109.569 10.5923C109.163 9.78357 108.439 9.3797 107.396 9.3797C106.469 9.3797 105.704 9.66948 105.102 10.249C104.499 10.8286 104.059 11.5404 103.781 12.3855V25.5668H101.278V7.4593H103.086L103.538 9.37869H103.642C104.082 8.72644 104.679 8.17213 105.433 7.71273C106.186 7.25434 107.084 7.02515 108.126 7.02515C108.868 7.02515 109.522 7.13419 110.09 7.35127C110.658 7.56835 111.133 7.93688 111.515 8.45585C111.898 8.97482 112.186 9.66847 112.384 10.5378C112.581 11.4071 112.68 12.5056 112.68 13.8334V25.5657H110.178Z" fill="#181B2B"/>
<path d="M114.801 7.45955H116.922V3.87522L119.425 3.04224V7.46056H123.179V9.8141H119.425V20.6055C119.425 21.6676 119.546 22.434 119.79 22.9045C120.033 23.375 120.433 23.6103 120.989 23.6103C121.452 23.6103 121.852 23.5557 122.188 23.4477C122.523 23.3386 122.889 23.2003 123.283 23.0317L123.77 25.0955C123.26 25.361 122.698 25.572 122.084 25.7296C121.47 25.886 120.827 25.9648 120.155 25.9648C118.995 25.9648 118.168 25.572 117.669 24.7875C117.171 24.003 116.922 22.7298 116.922 20.9669V9.81309H114.801V7.45955Z" fill="#181B2B"/>
<path d="M125.514 16.6978C125.514 16.0846 125.67 15.6244 125.984 15.3173C126.298 15.0103 126.722 14.8572 127.257 14.8572C127.792 14.8572 128.216 15.0112 128.53 15.3173C128.844 15.6244 129 16.0846 129 16.6978C129 17.334 128.844 17.8051 128.53 18.1113C128.216 18.4175 127.792 18.5715 127.257 18.5715C126.722 18.5715 126.298 18.4175 125.984 18.1113C125.67 17.8051 125.514 17.334 125.514 16.6978Z" fill="#181B2B"/>
</svg>

<svg width="129" height="26" fill="none" xmlns="http://www.w3.org/2000/svg"><path d="M0 16.983c0-.614.157-1.074.47-1.38.315-.308.739-.46 1.273-.46.535 0 .959.153 1.273.46.314.306.47.766.47 1.38 0 .636-.156 1.107-.47 1.413-.314.306-.738.46-1.273.46-.534 0-.958-.154-1.272-.46C.157 18.09 0 17.62 0 16.983zM5.995 22.596c.464.29 1.014.538 1.652.742a6.373 6.373 0 0 0 1.964.308c.764 0 1.413-.2 1.946-.6.533-.401.8-1.05.8-1.949 0-.752-.163-1.371-.487-1.857a5.64 5.64 0 0 0-1.234-1.311 12.916 12.916 0 0 0-1.617-1.07 8.616 8.616 0 0 1-1.616-1.173 5.812 5.812 0 0 1-1.234-1.623c-.325-.626-.487-1.42-.487-2.382 0-1.54.4-2.7 1.2-3.483.799-.782 1.929-1.173 3.389-1.173.95 0 1.772.091 2.467.272.695.18 1.298.429 1.808.742l-.66 2.173c-.44-.242-.95-.44-1.53-.598a6.774 6.774 0 0 0-1.772-.235c-.835 0-1.443.18-1.825.543-.383.362-.574.93-.574 1.702 0 .604.162 1.117.486 1.539.325.423.736.809 1.234 1.16.498.35 1.037.705 1.617 1.067.579.363 1.118.79 1.617 1.286.498.494.909 1.086 1.234 1.774.324.687.486 1.552.486 2.588 0 .677-.104 1.316-.313 1.92a4.243 4.243 0 0 1-.956 1.575c-.429.447-.961.803-1.599 1.068-.638.266-1.385.399-2.242.399-1.02 0-1.9-.103-2.642-.308-.742-.205-1.368-.477-1.878-.815l.766-2.28zM17.85 8.546c.672-.434 1.489-.773 2.451-1.014a12.454 12.454 0 0 1 3.042-.362c.973 0 1.755.151 2.346.452a3.538 3.538 0 0 1 1.391 1.23c.336.52.557 1.111.66 1.775.105.664.156 1.358.156 2.082 0 1.449-.03 2.86-.089 4.236-.06 1.377-.089 2.68-.089 3.91 0 .919.03 1.77.09 2.553.06.785.17 1.527.333 2.228h-1.96l-.608-2.137h-.138c-.345.628-.85 1.171-1.517 1.63-.667.458-1.565.687-2.692.687-1.243 0-2.26-.452-3.054-1.358-.794-.905-1.19-2.154-1.19-3.748 0-1.038.165-1.907.5-2.607a4.35 4.35 0 0 1 1.414-1.702c.608-.434 1.332-.742 2.172-.924.838-.18 1.776-.271 2.81-.271h.689c.23 0 .471.012.725.036.069-.748.103-1.413.103-1.992 0-1.376-.196-2.341-.586-2.897-.39-.555-1.103-.833-2.135-.833-.644 0-1.343.103-2.101.308-.758.205-1.39.466-1.895.779l-.828-2.061zm7.474 8.764a13.135 13.135 0 0 0-1.373-.073c-.55 0-1.088.049-1.615.145a4.299 4.299 0 0 0-1.409.506 2.698 2.698 0 0 0-.979.978c-.24.41-.36.93-.36 1.557 0 .966.223 1.714.67 2.245.446.531 1.024.797 1.734.797.961 0 1.706-.241 2.232-.724.527-.483.892-1.014 1.099-1.593V17.31zM40.827 25.566V14.52c0-1.81-.203-3.12-.609-3.929-.406-.808-1.13-1.212-2.173-1.212-.927 0-1.692.29-2.294.869a5.135 5.135 0 0 0-1.321 2.136v13.182h-2.503V7.459h1.808l.452 1.92h.104c.44-.653 1.037-1.207 1.79-1.666.754-.459 1.652-.688 2.695-.688.741 0 1.396.11 1.964.326a3.145 3.145 0 0 1 1.425 1.105c.382.519.672 1.212.87 2.082.197.87.296 1.968.296 3.295v11.733h-2.504zM45.45 7.46h2.121V3.875l2.503-.833v4.419h3.754v2.353h-3.754v10.791c0 1.063.122 1.829.366 2.3.243.47.643.705 1.199.705.463 0 .862-.054 1.198-.162.336-.11.701-.248 1.096-.416l.486 2.064a7.871 7.871 0 0 1-3.615.869c-1.16 0-1.987-.393-2.485-1.177-.498-.785-.748-2.058-.748-3.821V9.813h-2.12V7.46zM56.713 1.956c0-.58.156-1.05.47-1.413.313-.362.724-.543 1.234-.543s.933.176 1.27.525c.335.35.503.827.503 1.43 0 .58-.168 1.033-.504 1.359-.336.326-.759.488-1.269.488-.51 0-.92-.168-1.233-.506-.314-.339-.47-.785-.47-1.34zm.453 5.503h2.503v18.107h-2.503V7.459zM72.427 25.566V14.811c0-.965-.03-1.792-.088-2.48-.058-.688-.18-1.25-.365-1.685-.186-.434-.44-.754-.765-.96-.325-.204-.753-.307-1.286-.307-.788 0-1.455.32-1.999.96a5.39 5.39 0 0 0-1.13 2.19v13.036h-2.502V7.46h1.772l.452 1.919h.105a6.25 6.25 0 0 1 1.738-1.702c.671-.434 1.53-.653 2.572-.653.88 0 1.604.2 2.173.598.568.398 1.014 1.105 1.339 2.118a4.792 4.792 0 0 1 1.79-1.992 4.744 4.744 0 0 1 2.555-.724c.765 0 1.419.103 1.964.308.544.205.984.568 1.32 1.087.336.519.586 1.207.748 2.063.162.858.243 1.938.243 3.242v11.841h-2.502V14.051c0-1.57-.146-2.74-.435-3.513-.29-.772-.955-1.159-1.998-1.159-.881 0-1.582.284-2.103.851-.522.568-.887 1.334-1.096 2.3v13.035h-2.502v.001zM97.316 24.334c-.556.531-1.264.942-2.12 1.231a8.411 8.411 0 0 1-2.712.434c-1.09 0-2.033-.223-2.833-.67-.8-.445-1.46-1.086-1.981-1.919-.522-.833-.904-1.828-1.147-2.987-.243-1.16-.365-2.463-.365-3.91 0-3.09.544-5.445 1.634-7.062 1.09-1.618 2.63-2.427 4.623-2.427.649 0 1.292.085 1.93.254.637.17 1.21.507 1.72 1.014.51.506.921 1.22 1.234 2.136.314.918.47 2.113.47 3.585 0 .411-.018.851-.053 1.322-.035.47-.075.96-.12 1.467h-8.83c0 1.038.08 1.98.242 2.825.162.845.417 1.563.765 2.155.348.591.794 1.05 1.339 1.376.544.326 1.222.489 2.033.489a5.03 5.03 0 0 0 1.86-.363c.614-.241 1.083-.53 1.409-.87l.902 1.92zM95.37 14.63c.046-1.81-.197-3.138-.73-3.983-.533-.845-1.264-1.267-2.19-1.267-1.066 0-1.912.423-2.537 1.267-.626.845-.997 2.173-1.113 3.983h6.57zM110.178 25.566V14.52c0-1.81-.203-3.12-.609-3.929-.406-.808-1.13-1.212-2.173-1.212-.927 0-1.692.29-2.294.869a5.132 5.132 0 0 0-1.321 2.136v13.182h-2.503V7.459h1.808l.452 1.92h.104c.44-.653 1.037-1.207 1.791-1.666.753-.459 1.651-.688 2.693-.688.742 0 1.396.11 1.964.326a3.139 3.139 0 0 1 1.425 1.105c.383.519.671 1.212.869 2.082.197.87.296 1.968.296 3.295v11.733h-2.502zM114.801 7.46h2.121V3.875l2.503-.833v4.419h3.754v2.353h-3.754v10.791c0 1.063.121 1.829.365 2.3.243.47.643.705 1.199.705.463 0 .863-.054 1.199-.162.335-.11.701-.248 1.095-.416l.487 2.064a7.881 7.881 0 0 1-3.615.869c-1.16 0-1.987-.393-2.486-1.177-.498-.785-.747-2.058-.747-3.821V9.813h-2.121V7.46zM125.514 16.698c0-.613.156-1.074.47-1.38.314-.308.738-.46 1.273-.46.535 0 .959.153 1.273.46.314.306.47.767.47 1.38 0 .636-.156 1.107-.47 1.413-.314.306-.738.46-1.273.46-.535 0-.959-.154-1.273-.46-.314-.306-.47-.777-.47-1.413z" fill="#181B2B"/></svg>
